client/src/img/logo.svg

<?xml version="1.0" encoding="UTF-8"?>
<svg width="82px" height="27px" viewBox="0 0 82 27" version="1.1" xmlns="http://www.w3.org/2000/svg" xmlns:xlink="http://www.w3.org/1999/xlink">
    <title>bea logo</title>
    <defs>
        <polygon id="path-1" points="0.370730769 0.362933333 26.9937692 0.362933333 26.9937692 25.9996 0.370730769 25.9996"></polygon>
    </defs>
    <g id="Designs-for-Development" stroke="none" stroke-width="1" fill="none" fill-rule="evenodd">
        <g id="Meditate-Landing-(Paid-Member---recent)" transform="translate(-32.000000, -20.000000)">
            <rect fill="#FFFFFF" x="0" y="0" width="1440" height="1040"></rect>
            <g id="navigation" transform="translate(-1.000000, -2.000000)" fill="#F2F2F2">
                <rect id="Rectangle-Copy-5" x="0" y="0" width="196" height="1605"></rect>
            </g>
            <path d="M0,-1 L1440,-1 L1440,66 C1174.88262,66 1016.78219,66 965.698713,66 C889.073495,66 870.259441,23.70292 816,23.70292 C761.740559,23.70292 748.575215,66 653.741049,66 C590.518272,66 372.271256,66 -1,66 L0,-1 Z" id="header" fill="#AD79E2"></path>
            <g id="bea-logo" transform="translate(32.000000, 20.000000)">
                <g id="Group-3" transform="translate(55.000000, 0.000000)">
                    <mask id="mask-2" fill="white">
                        <use xlink:href="#path-1"></use>
                    </mask>
                    <g id="Clip-2"></g>
                    <path d="M13.6824231,23.2769333 C7.90165385,23.2769333 3.19880769,18.7482667 3.19880769,13.1816 C3.19880769,7.61493333 7.90165385,3.08626667 13.6824231,3.08626667 C19.4631923,3.08626667 24.1660385,7.61493333 24.1660385,13.1816 C24.1660385,18.7482667 19.4631923,23.2769333 13.6824231,23.2769333 M13.6824231,0.362933333 C6.34257692,0.362933333 0.370730769,6.11293333 0.370730769,13.1816 C0.370730769,20.2496 6.34257692,25.9996 13.6824231,25.9996 C17.9359615,25.9996 21.7277308,24.0662667 24.1660385,21.0662667 L24.1660385,24.6382667 C24.1660385,25.3902667 24.7995,25.9996 25.5804231,25.9996 C26.3606538,25.9996 26.9941154,25.3902667 26.9941154,24.6382667 L26.9941154,13.1816 C26.9941154,6.11293333 21.0222692,0.362933333 13.6824231,0.362933333" id="Fill-1" fill="#FEFEFE" mask="url(#mask-2)"></path>
                </g>
                <path d="M17.8850953,24.2160625 L8.10731163,24.2160625 C5.19157861,24.2160625 2.81978442,21.8744201 2.81978442,18.9957537 L2.81978442,3.78393751 L16.4506982,3.78393751 C18.6830563,3.78393751 20.4984867,5.39705381 20.4984867,7.37954444 C20.4984867,9.36271657 18.6830563,10.9758329 16.4506982,10.9758329 L6.9379812,10.9758329 C6.15934795,10.9758329 5.52843413,11.5994076 5.52843413,12.3681424 C5.52843413,13.1368771 6.15934795,13.7597704 6.9379812,13.7597704 L16.4506982,13.7597704 L17.8850953,13.7597704 C20.80497,13.7597704 23.1809059,16.1055018 23.1809059,18.9882572 C23.1809059,21.8710126 20.80497,24.2160625 17.8850953,24.2160625 M21.4158658,11.7752352 C22.5914087,10.6296296 23.3182711,9.08330057 23.3182711,7.37954444 C23.3182711,3.86162879 20.2375617,1 16.4506982,1 L1.40954707,1 C0.630913821,1 0,1.62289324 0,2.391628 L0,18.9957537 C0,23.4091636 3.63638294,27 8.10731163,27 L17.8850953,27 C22.3594754,27 26,23.4057561 26,18.9882572 C26,15.8192708 24.1265863,13.0741789 21.4158658,11.7752352" id="Fill-4" fill="#FEFEFE"></path>
                <path d="M41.0600033,3.77462839 C45.5811936,3.77462839 49.5435468,6.76185376 50.8645586,10.9431542 L31.2561304,10.9431542 C32.5648601,6.79309804 36.4651202,3.77462839 41.0600033,3.77462839 L41.0600033,3.77462839 Z M52.6065747,13.7177826 C53.0105205,13.7177826 53.3953607,13.5425429 53.660109,13.23893 C53.9248572,12.9346378 54.0435845,12.5304998 53.9855855,12.1324747 C53.0671548,5.78580945 47.5108535,1 41.0600033,1 C34.5108961,1 29.0726398,5.82384597 28.1412446,12.0890044 C28.1364682,12.1161734 28.1323741,12.1433423 28.1289624,12.1711905 C28.0443522,12.7689072 28,13.3795292 28,14.0003396 C28,21.1681862 33.8592606,27 41.0600033,27 C46.8128188,27 51.8252945,23.3294757 53.5325112,17.8658011 C53.7610954,17.1335981 53.3503262,16.355887 52.6154452,16.1283471 C51.8805641,15.9014865 51.0992839,16.3096998 50.8706997,17.0412236 C49.5285353,21.3386713 45.58597,24.2253716 41.0600033,24.2253716 C35.3958922,24.2253716 30.7873623,19.6378955 30.7873623,14.0003396 C30.7873623,13.9052483 30.7887269,13.8115155 30.7914563,13.7177826 L52.6065747,13.7177826 Z" id="Fill-6" fill="#FEFEFE"></path>
            </g>
        </g>
    </g>
</svg>

<?xml version="1.0" encoding="utf-8"?>
<!-- Generator: Adobe Illustrator 25.0.0, SVG Export Plug-In . SVG Version: 6.00 Build 0)  -->
<svg version="1.1" id="Lag_1" xmlns="http://www.w3.org/2000/svg" xmlns:xlink="http://www.w3.org/1999/xlink" x="0px" y="0px"
	 viewBox="0 0 82 27" style="enable-background:new 0 0 82 27;" xml:space="preserve">
<style type="text/css">
	.st0{filter:url(#Adobe_OpacityMaskFilter);}
	.st1{fill-rule:evenodd;clip-rule:evenodd;fill:#FFFFFF;}
	.st2{mask:url(#mask-2_1_);fill-rule:evenodd;clip-rule:evenodd;fill:#FEFEFE;}
	.st3{fill-rule:evenodd;clip-rule:evenodd;fill:#FEFEFE;}
</style>
<g id="Designs-for-Development">
	<g id="Meditate-Landing-_x28_Paid-Member---recent_x29_" transform="translate(-32.000000, -20.000000)">
		<g id="bea-logo" transform="translate(32.000000, 20.000000)">
			<g id="Group-3" transform="translate(55.000000, 0.000000)">
				<g id="Clip-2">
				</g>
				<defs>
					<filter id="Adobe_OpacityMaskFilter" filterUnits="userSpaceOnUse" x="0.4" y="0.4" width="26.6" height="25.6">
						<feColorMatrix  type="matrix" values="1 0 0 0 0  0 1 0 0 0  0 0 1 0 0  0 0 0 1 0"/>
					</filter>
				</defs>
				<mask maskUnits="userSpaceOnUse" x="0.4" y="0.4" width="26.6" height="25.6" id="mask-2_1_">
					<g class="st0">
						<polygon id="path-1_1_" class="st1" points="0.4,0.4 27,0.4 27,26 0.4,26 						"/>
					</g>
				</mask>
				<path id="Fill-1" class="st2" d="M13.7,23.3c-5.8,0-10.5-4.5-10.5-10.1S7.9,3.1,13.7,3.1s10.5,4.5,10.5,10.1
					S19.5,23.3,13.7,23.3 M13.7,0.4C6.3,0.4,0.4,6.1,0.4,13.2c0,7.1,6,12.8,13.3,12.8c4.3,0,8-1.9,10.5-4.9v3.6
					c0,0.8,0.6,1.4,1.4,1.4c0.8,0,1.4-0.6,1.4-1.4V13.2C27,6.1,21,0.4,13.7,0.4"/>
			</g>
			<path id="Fill-4" class="st3" d="M17.9,24.2H8.1c-2.9,0-5.3-2.3-5.3-5.2V3.8h13.6c2.2,0,4,1.6,4,3.6c0,2-1.8,3.6-4,3.6H6.9
				c-0.8,0-1.4,0.6-1.4,1.4s0.6,1.4,1.4,1.4h9.5h1.4c2.9,0,5.3,2.3,5.3,5.2S20.8,24.2,17.9,24.2 M21.4,11.8c1.2-1.1,1.9-2.7,1.9-4.4
				c0-3.5-3.1-6.4-6.9-6.4h-15C0.6,1,0,1.6,0,2.4V19c0,4.4,3.6,8,8.1,8h9.8c4.5,0,8.1-3.6,8.1-8C26,15.8,24.1,13.1,21.4,11.8"/>
			<path id="Fill-6" class="st3" d="M41.1,3.8c4.5,0,8.5,3,9.8,7.2H31.3C32.6,6.8,36.5,3.8,41.1,3.8L41.1,3.8z M52.6,13.7
				c0.4,0,0.8-0.2,1.1-0.5c0.3-0.3,0.4-0.7,0.3-1.1C53.1,5.8,47.5,1,41.1,1c-6.5,0-12,4.8-12.9,11.1c0,0,0,0.1,0,0.1
				C28,12.8,28,13.4,28,14c0,7.2,5.9,13,13.1,13c5.8,0,10.8-3.7,12.5-9.1c0.2-0.7-0.2-1.5-0.9-1.7c-0.7-0.2-1.5,0.2-1.7,0.9
				c-1.3,4.3-5.3,7.2-9.8,7.2c-5.7,0-10.3-4.6-10.3-10.2c0-0.1,0-0.2,0-0.3H52.6z"/>
		</g>
	</g>
</g>
</svg>
